packages/tokens/icons/sso/size32Px.svg

<svg viewBox="0 0 32 32" fill="none" xmlns="http://www.w3.org/2000/svg" width="1em" height="1em"><path d="M24.6667 21C27.375 21 29 18.6707 29 16.2C29 13.7293 27.1041 11.6946 24.6666 11.4293C24.6745 7.93025 21.7268 5 18.1667 5C14.9457 5 12.2719 7.3068 11.7564 10.3341C9.182 10.2928 6.86993 12.1143 6.358 14.6017C4.54733 14.5435 3 16.0146 3 17.8C3 19.5673 4.45507 21 6.25 21H7.33333" stroke="currentColor" stroke-linecap="round" stroke-linejoin="round"/><path d="M23 24.625H23.5C23.5 24.4885 23.4442 24.3579 23.3455 24.2635L23 24.625ZM23 24.625L23.5 24.625V24.6251V24.6252V24.6253V24.6255V24.6257V24.626V24.6263V24.6266V24.627V24.6274V24.6278V24.6283V24.6288V24.6294V24.63V24.6306V24.6313V24.632V24.6327V24.6335V24.6343V24.6352V24.6361V24.637V24.638V24.639V24.64V24.6411V24.6422V24.6433V24.6445V24.6457V24.6469V24.6482V24.6495V24.6509V24.6523V24.6537V24.6551V24.6566V24.6581V24.6597V24.6613V24.6629V24.6645V24.6662V24.6679V24.6697V24.6715V24.6733V24.6751V24.677V24.6789V24.6809V24.6828V24.6848V24.6869V24.6889V24.691V24.6932V24.6953V24.6975V24.6997V24.702V24.7042V24.7065V24.7089V24.7113V24.7137V24.7161V24.7185V24.721V24.7235V24.7261V24.7286V24.7312V24.7339V24.7365V24.7392V24.7419V24.7447V24.7474V24.7502V24.753V24.7559V24.7588V24.7617V24.7646V24.7675V24.7705V24.7735V24.7766V24.7796V24.7827V24.7858V24.7889V24.7921V24.7953V24.7985V24.8017V24.805V24.8083V24.8116V24.8149V24.8183V24.8217V24.8251V24.8285V24.8319V24.8354V24.8389V24.8424V24.846V24.8495V24.8531V24.8567V24.8604V24.864V24.8677V24.8714V24.8751V24.8789V24.8826V24.8864V24.8902V24.8941V24.8979V24.9018V24.9057V24.9096V24.9135V24.9174V24.9214V24.9254V24.9294V24.9334V24.9375V24.9416V24.9456V24.9498V24.9539V24.958V24.9622V24.9664V24.9706V24.9748V24.979V24.9833V24.9875V24.9918V24.9961V25.0004V25.0048V25.0091V25.0135V25.0179V25.0223V25.0267V25.0311V25.0356V25.0401V25.0445V25.049V25.0535V25.0581V25.0626V25.0672V25.0717V25.0763V25.0809V25.0856V25.0902V25.0948V25.0995V25.1042V25.1088V25.1135V25.1182V25.123V25.1277V25.1325V25.1372V25.142V25.1468V25.1516V25.1564V25.1612V25.1661V25.1709V25.1758V25.1806V25.1855V25.1904V25.1953V25.2002V25.2051V25.2101V25.215V25.22V25.2249V25.2299V25.2349V25.2399V25.2449V25.2499V25.2549V25.26V25.265V25.2701V25.2751V25.2802V25.2852V25.2903V25.2954V25.3005V25.3056V25.3107V25.3158V25.321V25.3261V25.3312V25.3364V25.3415V25.3467V25.3519V25.357V25.3622V25.3674V25.3726V25.3778V25.383V25.3882V25.3934V25.3986V25.4038V25.409V25.4143V25.4195V25.4247V25.43V25.4352V25.4405V25.4457V25.451V25.4562V25.4615V25.4668V25.472V25.4773V25.4826V25.4879V25.4931V25.4984V25.5037V25.509V25.5143V25.5196V25.5248V25.5301V25.5354V25.5407V25.546V25.5513V25.5566V25.5619V25.5672V25.5725V25.5778V25.5831V25.5883V25.5936V25.5989V25.6042V25.6095V25.6148V25.6201V25.6254V25.6306V25.6359V25.6412V25.6465V25.6518V25.657V25.6623V25.6676V25.6728V25.6781V25.6834V25.6886V25.6939V25.6991V25.7044V25.7096V25.7148V25.7201V25.7253V25.7305V25.7357V25.741V25.7462V25.7514V25.7566V25.7618V25.767V25.7721V25.7773V25.7825V25.7877V25.7928V25.798V25.8031V25.8082V25.8134V25.8185V25.8236V25.8287V25.8338V25.8389V25.844V25.8491V25.8542V25.8592V25.8643V25.8693V25.8744V25.8794V25.8844V25.8894V25.8945V25.8994V25.9044V25.9094V25.9144V25.9193V25.9243V25.9292V25.9341V25.939V25.9439V25.9488V25.9537V25.9586V25.9634V25.9683V25.9731V25.978V25.9828V25.9876V25.9923V25.9971V26.0019V26.0066V26.0114V26.0161V26.0208V26.0255V26.0302V26.0349V26.0395V26.0442V26.0488V26.0534V26.058V26.0626V26.0672V26.0717V26.0763V26.0808V26.0853V26.0898V26.0943V26.0988V26.1032V26.1076V26.1121V26.1165V26.1209V26.1252V26.1296V26.1339V26.1382V26.1425V26.1468V26.1511V26.1553V26.1596V26.1638V26.168V26.1722V26.1763V26.1805V26.1846V26.1887V26.1928V26.1969V26.2009V26.2049V26.2089V26.2129V26.2169V26.2208V26.2248V26.2287V26.2326V26.2364V26.2403V26.2441V26.2479V26.2517V26.2555V26.2592V26.2629V26.2666V26.2703V26.274V26.2776V26.2812V26.2848V26.2884V26.2919V26.2954V26.2989V26.3024V26.3059V26.3093V26.3127V26.3161V26.3194V26.3228V26.3261V26.3294V26.3326V26.3358V26.3391V26.3422V26.3454V26.3485V26.3516V26.3547V26.3578V26.3608V26.3638V26.3668V26.3698V26.3727V26.3756V26.3785V26.3813V26.3841V26.3869V26.3897V26.3924V26.3951V26.3978V26.4005V26.4031V26.4057V26.4083V26.4108V26.4133V26.4158V26.4183V26.4207V26.4231V26.4255V26.4278V26.4301V26.4324V26.4346V26.4368V26.439V26.4412V26.4433V26.4454V26.4475V26.4495V26.4515V26.4535V26.4554V26.4573V26.4592V26.4611V26.4629V26.4647V26.4664V26.4681V26.4698V26.4714V26.4731V26.4746V26.4762V26.4777V26.4792V26.4807V26.4821V26.4834V26.4848V26.4861V26.4874V26.4886V26.4898V26.491V26.4922V26.4933V26.4943V26.4954V26.4964V26.4973V26.4983V26.4991V26.5C23.5 26.7876 23.3612 27.0334 23.1973 27.1973C23.0334 27.3612 22.7876 27.5 22.5 27.5H22.4993H22.4987H22.4979H22.4972H22.4963H22.4955H22.4946H22.4937H22.4928H22.4918H22.4907H22.4897H22.4886H22.4874H22.4863H22.4851H22.4838H22.4825H22.4812H22.4799H22.4785H22.4771H22.4756H22.4741H22.4726H22.4711H22.4695H22.4679H22.4662H22.4645H22.4628H22.461H22.4592H22.4574H22.4556H22.4537H22.4518H22.4498H22.4478H22.4458H22.4438H22.4417H22.4396H22.4374H22.4353H22.4331H22.4308H22.4286H22.4263H22.4239H22.4216H22.4192H22.4168H22.4143H22.4118H22.4093H22.4068H22.4042H22.4016H22.399H22.3964H22.3937H22.391H22.3882H22.3855H22.3827H22.3799H22.377H22.3741H22.3712H22.3683H22.3653H22.3624H22.3593H22.3563H22.3532H22.3501H22.347H22.3439H22.3407H22.3375H22.3343H22.3311H22.3278H22.3245H22.3212H22.3178H22.3145H22.3111H22.3076H22.3042H22.3007H22.2972H22.2937H22.2902H22.2866H22.283H22.2794H22.2758H22.2721H22.2685H22.2648H22.261H22.2573H22.2535H22.2497H22.2459H22.2421H22.2383H22.2344H22.2305H22.2266H22.2226H22.2187H22.2147H22.2107H22.2067H22.2026H22.1986H22.1945H22.1904H22.1863H22.1822H22.178H22.1738H22.1696H22.1654H22.1612H22.1569H22.1527H22.1484H22.1441H22.1398H22.1354H22.1311H22.1267H22.1223H22.1179H22.1135H22.109H22.1046H22.1001H22.0956H22.0911H22.0866H22.0821H22.0775H22.0729H22.0684H22.0638H22.0591H22.0545H22.0499H22.0452H22.0405H22.0359H22.0312H22.0264H22.0217H22.017H22.0122H22.0075H22.0027H21.9979H21.9931H21.9883H21.9834H21.9786H21.9737H21.9689H21.964H21.9591H21.9542H21.9493H21.9443H21.9394H21.9344H21.9295H21.9245H21.9195H21.9145H21.9095H21.9045H21.8995H21.8945H21.8894H21.8844H21.8793H21.8743H21.8692H21.8641H21.859H21.8539H21.8488H21.8437H21.8385H21.8334H21.8282H21.8231H21.8179H21.8128H21.8076H21.8024H21.7972H21.792H21.7868H21.7816H21.7764H21.7712H21.766H21.7607H21.7555H21.7502H21.745H21.7397H21.7345H21.7292H21.7239H21.7187H21.7134H21.7081H21.7028H21.6975H21.6922H21.6869H21.6816H21.6763H21.671H21.6657H21.6604H21.6551H21.6498H21.6445H21.6391H21.6338H21.6285H21.6231H21.6178H21.6125H21.6072H21.6018H21.5965H21.5911H21.5858H21.5805H21.5751H21.5698H21.5645H21.5591H21.5538H21.5484H21.5431H21.5378H21.5324H21.5271H21.5218H21.5164H21.5111H21.5058H21.5004H21.4951H21.4898H21.4845H21.4791H21.4738H21.4685H21.4632H21.4579H21.4526H21.4473H21.442H21.4367H21.4314H21.4261H21.4208H21.4155H21.4103H21.405H21.3997H21.3945H21.3892H21.3839H21.3787H21.3735H21.3682H21.363H21.3578H21.3525H21.3473H21.3421H21.3369H21.3317H21.3265H21.3214H21.3162H21.311H21.3059H21.3007H21.2956H21.2904H21.2853H21.2802H21.2751H21.27H21.2649H21.2598H21.2547H21.2497H21.2446H21.2395H21.2345H21.2295H21.2245H21.2195H21.2145H21.2095H21.2045H21.1995H21.1946H21.1896H21.1847H21.1798H21.1748H21.1699H21.165H21.1602H21.1553H21.1505H21.1456H21.1408H21.136H21.1312H21.1264H21.1216H21.1168H21.1121H21.1073H21.1026H21.0979H21.0932H21.0885H21.0839H21.0792H21.0746H21.0699H21.0653H21.0607H21.0562H21.0516H21.047H21.0425H21.038H21.0335H21.029H21.0245H21.0201H21.0156H21.0112H21.0068H21.0024H20.9981H20.9937H20.9894H20.9851H20.9808H20.9765H20.9722H20.968H20.9638H20.9596H20.9554H20.9512H20.947H20.9429H20.9388H20.9347H20.9306H20.9266H20.9226H20.9185H20.9145H20.9106H20.9066H20.9027H20.8988H20.8949H20.891H20.8872H20.8833H20.8795H20.8758H20.872H20.8683H20.8645H20.8609H20.8572H20.8535H20.8499H20.8463H20.8427H20.8392H20.8356H20.8321H20.8286H20.8252H20.8217H20.8183H20.8149H20.8116H20.8082H20.8049H20.8016H20.7984H20.7951H20.7919H20.7887H20.7856H20.7824H20.7793H20.7762H20.7732H20.7701H20.7671H20.7642H20.7612H20.7583H20.7554H20.7525H20.7497H20.7469H20.7441H20.7413H20.7386H20.7359H20.7332H20.7306H20.7279H20.7254H20.7228H20.7203H20.7178H20.7153H20.7129H20.7105H20.7081H20.7057H20.7034H20.7011H20.6989H20.6966H20.6944H20.6923H20.6901H20.688H20.686H20.6839H20.6819H20.6799H20.678H20.6761H20.6742H20.6723H20.6705H20.6688H20.667H20.6653H20.6636H20.662H20.6603H20.6588H20.6572H20.6557H20.6542H20.6528H20.6514H20.65H20.6487H20.6474H20.6461H20.6449H20.6437H20.6425H20.6414H20.6403H20.6392H20.6382H20.6372H20.6363H20.6354H20.6345H20.6337H20.6329H20.6321H20.6314H20.6307H20.6301H20.6295H20.6289H20.6284H20.6279H20.6274H20.627H20.6266H20.6263H20.626H20.6257H20.6255H20.6253H20.6252H20.6251H20.625L20.625 27M23 24.625L23.3454 24.2635L23.3453 24.2634L23.3449 24.263L23.3431 24.2613L23.336 24.2545L23.3081 24.2279L23.2009 24.1252L22.8056 23.7466C22.4715 23.4263 22.0093 22.9827 21.497 22.4892C20.4715 21.5013 19.2479 20.3163 18.4475 19.5205C18.2528 19.3269 18.2472 19.0916 18.2631 18.7595C18.2647 18.7267 18.2653 18.6946 18.2657 18.6721C18.2657 18.6687 18.2658 18.6656 18.2658 18.6627C18.2664 18.636 18.2668 18.625 18.2673 18.6185C18.3797 17.2232 18.0254 15.9435 17.2508 15.0042C16.4708 14.0582 15.2984 13.5 13.8703 13.5C11.1598 13.5 9.5 15.7529 9.5 17.7531C9.5 18.6886 9.697 19.905 10.4323 20.8852C11.1887 21.8935 12.4549 22.5727 14.4156 22.516C14.5093 22.5158 14.6047 22.5114 14.6897 22.5074L14.6951 22.5072C14.7911 22.5028 14.8909 22.4924 14.975 22.4836C14.9892 22.4822 15.0029 22.4807 15.0161 22.4794C15.1153 22.4693 15.1965 22.4623 15.2716 22.4619C15.4186 22.4611 15.4929 22.4862 15.546 22.5258C15.5451 22.5252 15.5452 22.5252 15.5464 22.5262C15.5493 22.5286 15.5591 22.5367 15.578 22.5535C15.6015 22.5744 15.632 22.6023 15.6694 22.6373C15.7442 22.7071 15.8397 22.7984 15.9507 22.905C15.991 22.9437 16.0332 22.9843 16.0769 23.0263C16.2724 23.2144 16.4989 23.4322 16.7231 23.6428C16.8919 23.8012 17.0985 23.8294 17.249 23.8214C17.3625 23.8153 17.4763 23.788 17.5855 23.7511C17.5474 23.8644 17.5163 23.9928 17.5097 24.1253C17.5004 24.3125 17.5395 24.571 17.7506 24.7715L18.0764 24.4284L17.7506 24.7715L17.7549 24.7756C17.8286 24.8456 18.0016 25.0102 18.28 25.0519C18.4376 25.0755 18.5951 25.0559 18.7525 25.0052C18.7448 25.0211 18.7372 25.0373 18.7301 25.0533C18.6995 25.123 18.658 25.2332 18.6535 25.3662C18.6486 25.5153 18.691 25.6617 18.7821 25.7898C18.835 25.8642 18.9711 26.0098 19.0963 26.1423C19.2382 26.2924 19.416 26.477 19.5891 26.6554C19.7626 26.8342 19.9324 27.008 20.0588 27.137L20.2111 27.2923L20.2536 27.3355L20.2649 27.3469L20.2678 27.3498L20.2685 27.3506L20.2687 27.3508L20.2687 27.3508L20.625 27M20.625 27V27.5C20.4911 27.5 20.3627 27.4463 20.2688 27.3508L20.625 27Z" stroke="currentColor" stroke-linecap="round" stroke-linejoin="round"/><path d="M13.5 17C13.5 17.2761 13.2761 17.5 13 17.5C12.7239 17.5 12.5 17.2761 12.5 17C12.5 16.7239 12.7239 16.5 13 16.5C13.2761 16.5 13.5 16.7239 13.5 17Z" stroke="currentColor"/></svg>

<svg xmlns="http://www.w3.org/2000/svg" fill="none" viewBox="0 0 32 32" width="1em" height="1em"><path stroke="currentColor" stroke-linecap="round" stroke-linejoin="round" d="M24.667 21C27.375 21 29 18.67 29 16.2c0-2.47-1.896-4.505-4.333-4.77.007-3.5-2.94-6.43-6.5-6.43-3.221 0-5.895 2.307-6.41 5.334-2.575-.041-4.887 1.78-5.399 4.268C4.548 14.543 3 16.015 3 17.8 3 19.567 4.455 21 6.25 21h1.083"/><path stroke="currentColor" stroke-linecap="round" stroke-linejoin="round" d="M23 24.625h.5a.5.5 0 0 0-.154-.361l-.346.361Zm0 0h.5V26.5a1 1 0 0 1-.303.697 1 1 0 0 1-.697.303h0-.002 0-.002 0-.01 0-.005 0-.004 0-1.831 0-.005 0-.002 0-.002 0-.002 0-.002 0-.001 0-.002 0-.002 0-.001 0-.001 0-.001 0-.001V27M23 24.625l.345-.361h0v-.001l-.002-.002-.007-.006-.028-.027-.107-.103-.395-.378c-.335-.32-.797-.764-1.309-1.258a310.822 310.822 0 0 1-3.05-2.969c-.194-.193-.2-.428-.184-.76l.003-.088v-.01l.001-.043c.113-1.396-.242-2.675-1.016-3.615-.78-.946-1.953-1.504-3.38-1.504-2.711 0-4.371 2.253-4.371 4.253 0 .936.197 2.152.932 3.132.757 1.008 2.023 1.688 3.984 1.631.093 0 .189-.005.274-.009h.005c.096-.004.196-.015.28-.023l.041-.005c.1-.01.18-.017.256-.017.147 0 .22.024.274.064 0 0 0 0 0 0l.032.027.091.084.282.268.126.121c.195.188.422.406.646.617a.7.7 0 0 0 .526.178c.114-.006.227-.033.337-.07a1.35 1.35 0 0 0-.076.374c-.01.188.03.446.24.646l.326-.343-.325.343.004.005c.074.07.247.234.525.276.158.024.315.004.473-.047a.85.85 0 0 0-.099.361.685.685 0 0 0 .128.424c.053.074.19.22.314.352a142.56 142.56 0 0 0 .963.995l.152.155.043.043.01.012.004.003h0l.357-.35m0 0v.5a.5.5 0 0 1-.356-.15l.356-.35Z"/><path stroke="currentColor" d="M13.5 17a.5.5 0 1 1-1 0 .5.5 0 0 1 1 0Z"/></svg>
